X: 1
T:The 78th Highlanders Farewell to Montreal 1869  "CYMRU"
M:C|
L:1/8
Q:80
C:March - P/M R. MacKenzie
S:
K:HP
|: e|
{g}A3/4B/4{GdG}c3/4d/4{gef}e3/2a/2|
f/4a3/4e3/4f/4{gef}e3/4d/4{g}c/4{d}A3/4|
{g}G3/4A/4{g}B3/4c/4{Gdc}d{g}c/2d/2|  !
{g}e3/4f/4{gef}e3/4d/4{g}c/4{d}A3/4{g}B/4{d}G3/4:|2 |
{g}A3/4B/4{GdG}c3/4d/4{gef}e3/2a/2|
f/4a3/4e3/4f/4{gef}e3/4d/4{g}c/4{d}A3/4|  !
{g}B3/4c/4{dc}d3/4f/4{g}e/4a3/4{ef}e3/4d/4|
{gcd}c{e}A{GAG}A:| |:
{g}c3/4d/4|  !
{g}e/2f/2g/2a/2f/4a3/4e3/4f/4|
{g}e/4a3/4f/4a3/4{ef}e3/4d/4{g}c/4{d}A3/4|
{g}G3/4A/4{g}B3/4c/4{Gdc}d{g}c/2d/2|  !
{g}e3/4f/4{gef}e3/4d/4{g}c/4{d}A3/4{g}B/4{d}G3/4|1 |
{g}e/2f/2g/2a/2f/4a3/4e3/4f/4|
{g}e/4a3/4f/4a3/4{ef}e3/4d/4{g}c/4{d}A3/4|  !
{g}B3/4c/4{dc}d3/4f/4{g}e/4a3/4{ef}e3/4d/4|
{gcd}c{e}A{GAG}A:|
